X:1
T: ?
I:
C: W-10
M: 3/4
Z:
R: waltz
K: G
d2| "G"g2 f3 e| d2 G3 A| B3 c B2| "D"A4 AB| "Am"c2 d2 e2| "D"f2 e2 B2| "G"d6-| "D"d4 d2|
    "G"g2 f3 e| d2 G3 A| B3 c B2| "D"A4 AB| "Am"c2 d2 e2| "D"B2 G2 A2| "G"G6-| G4 |]
\
d2| "C"G2 c3 d| e2 g3 a| g4 e2| "G"d6| "Em"g6| "D"f2 e2 d2| "C"e6-| e6|
    "Em"g4 g2| "D"f2 e2 d2| "Em"e2 d3 e| "Bm"B4 A2| "Em"B2 d2 e2| "D"B4 A2| "G"G6-| G4|]
%
